X: 223
T: La Prussienne
%R: march, reel
B: "Twenty Four Country Dances for the Year 1793", Preston & Son, eds. p.92
F: http://www.vwml.org/browse/browse-collections-dance-tune-books/browse-prestons1793# 2014-8-7
Z: 2014 John Chambers <jc:trillian.mit.edu>
M: 2/4
L: 1/8
K: A
|:\
A2AA | (BA)AA | (dc)cc | (fe)ee |\
a2a2 | a3e | (ed)(dc) | (c2B2) :|
|:\
geee | aeee | beee | aeee |\
f2f2 | f3e | edcB | (B2A2) :|
|:\
"^Pia"E2EA | A3c | BABc | Ace2 |\
E2EA | A3c | BABc | A2A2 :|
% = = = = = = = = = = = = = = = = = = = = = = = = =
%%begintext align
%% The 1st Cu: sett to the 2d Lady & hands 3 round .| Set
%% to the 2d Gent.n & hands 3 round :| Lead down the middle
%% up again into the 2d Cu.s place :|. Allemande :|: hands
%% 4 at bottom .|| Right & left at top :||
%%endtext
% = = = = = = = = = = = = = = = = = = = = = = = = =

%%sep 1 1 500
%%sep 1 1 500
